icons/lines/triangle.svg

<svg xmlns="http://www.w3.org/2000/svg" width="24" height="24" viewBox="0 0 24 24" fill="none" stroke="currentColor" stroke-width="2" stroke-linecap="round" stroke-linejoin="round" >
  <path d="M10.9004 2L0.900391 12L10.9004 22V18L4.90039 12L10.9004 6V2Z" stroke-miterlimit="10"/>
  <path d="M12.9004 2L22.9004 12L12.9004 22V18L18.9004 12L12.9004 6V2Z" stroke-miterlimit="10"/>
  <path d="M10.9004 9L7.90039 12L10.9004 15V9Z" stroke-miterlimit="10"/>
  </svg>

<svg xmlns="http://www.w3.org/2000/svg" width="24" height="24" viewBox="0 0 24 24" fill="none" stroke="currentColor" stroke-width="2" stroke-linecap="round" stroke-linejoin="round">
  <path d="M10.9 2 .9 12l10 10v-4l-6-6 6-6z" />
  <path d="m10.9 9-3 3 3 3z" />
  <path d="m12.9 2 10 10-10 10v-4l6-6-6-6z" />
</svg>
